X: 20
T:Close Every Door
% Nottingham Music Database
S:Joseph
M:3/4
L:1/4
K:Am
E|"Am"EcA|"E7"BFE|"Am"EcA|"E7"BFE|"Am"EAc|"F"ed3/2c/2|
"Dm"BcA|"E7"B2E|"Am"EcA|"E7"BFE|"Am"EcA|"E7"BFE|"Am"EAc|
"F"ed3/2c/2|"Dm"BcA|"E7"e2e/2e/2|"C7"efg|"F"a2f/2e/2|\
"G7"def|"C"g2c/2c/2|
"Bb"dcd|"Am"e/2c/2AA/2A/2|"F"cBA|"E7"e2e/2e/2|"C7"efg|"F"a/2f/2dd/2d/2|
"G7"def|"C"g/2e/2cc/2c/2|"Bb"dcd|"Am"e/2c/2AE/2E/2|"E7"E/2c/2A^G|"Am"A2\
:|


